X:1
T:Mort m'a privé
T:Mort m'a privé
T:Anonymus
C:Anonymus
%%score [ 1 [ 2 3 ] 4 ]
L:1/8
Q:1/4=96
M:2/2
K:C
V:1 treble nm="Superius" snm="S"
V:2 treble nm="Altus" snm="A"
V:3 treble-8 nm="Tenor" snm="T"
V:4 bass nm="Bass" snm="B"
V:1
 A8 | A4 B4 | c4 z2 c2 | c2 c2 B2 A2 | GFED C2 c2 | B2 A4 G2 | A4 z2 A2 | A2 G2 FGAB | c3 d e2 f2 | %9
w: Mort|m'a pri-|vé par|sa cru- el- *|* * * * l'en- nuy-||e, d'ung|me- de- cin _ _ _|_ _ _ cong-|
w: Et|m'a re-|mis en|si grand fre- ne-|si, _ _ _ e, [fre-|ne- si- *|e,] qu'en|peu de temps _ _ _|_ _ _ iay|
 e2 d4 c2- | c2 B2 A2 G2 | F4 E4- | !fermata!E8 :: z2 E2 F4 | G4 A4 | z2 A2 A2 A2 | c4 B2 A2- | %17
w: nois- sant ma|_ na- tu- *|* re,|_|Riens ne|my vault|ma grand pro-|ge- ni- tu-|
w: bien chan- gé|_ pas- tu- *|* re.|_|||||
 A2 G2 A4 | z2 c2 c2 B2 | A4 G2 G2 | A2 B2 c2 c2 | d4 G4- | G4 z2 G2 | c2 B2 A2 c2- | cB A4 G2 | %25
w: * * re,|ver- tu me|cou- vre, ar-|mée de pa- ti-|en- ce,|_ ar-|mée de pa- ti-|* * en- *|
w: ||||||||
 A4 z2 c2 | c4 A4 | G8 | z2 G2 A2 c2- | c2 BA B2 d2 | d2 B2 c2 d2 | e3 d c2 B2- | BA A4 G2 | %33
w: ce, di-|vin vou-|loir,|di- vin vou-|* * * loir pas-|se hu- mai- ne|sci- * * en-||
w: ||||||||
 A4 z2 c2 | c4 A4 | G8 | z2 G2 A2 c2- | c2 BA B2 d2 | d2 B2 c2 d2 | e3 d c2 B2- |"^#" BA A4 G2 | %41
w: ce, di-|vin vou-|loir,|di- vin vou-|* * * loir pas-|se hu- mai- ne|scien- * * *||
w: ||||||||
 A8 :| %42
w: ce.|
w: |
V:2
 E8 | F4 G4 | A6 A2 | G6 F2 | E4 E2 F2- | F2 D2 E4 | C4 E4 | F2 E2 D2 D2 | CDEF G2 A2- | A2 F2 A4 | %10
w: Mort|m'a pri-|vé par|sa cru-|el- l'en- nuy-||e, d'ung|me- de- cin cong-|nais- * * * sant ma|_ na- tu-|
w: Et|m'a re-|mis en|si grand|fre- ne- si-||e, qu'en|peu de temps iay|bien _ _ _ chan- gé|_ pas- tu-|
 G2 G2 F2 E2 | C2 D2 B,4 | !fermata!C8 :: C4 D4- | D2 E2 F4 | z2 F2 F2 F2 | E2 A2 G2 F2- | %17
w: re, ma na- tu-||re,|Riens ne|_ my vault|ma grand pro-|ge- ni- tu- *|
w: re, bien chan- gé|pas- tu- *|re.|||||
 F2 ED E4 | z2 A2 G2 G2 | E4 E2 E2 | F2 G2 A3 G | F4 E4- | E2 D2 ECDE | F2 G2 F2 E2- | %24
w: * * * re,|ver- tu me|cou- vre, ar-|mée de pa- ti-|en- ce,|_ ar- mée _ _ _|_ de pa- ti-|
w: |||||||
 ED/C/ D2 E4- | E8 | z2 F2 F4 | D4 C3 D | EF G4 F2 | G8 | z2 G2 G2 F2 | E2 C2 G2 F2 | E2 D2 E4- | %33
w: * * * en- ce,|_|di- vin|vou- loir, _|_ _ _ _||pas- se hu-|mai- ne sci- *|en- * ce,|
w: |||||||||
 E8 | z2 F2 F4 | D4 C3 D | EF G4 F2 | G8 | z2 G2 G2 F2 | E2 C2 G2 F2 | E2 D2 E4 | E8 :| %42
w: _|di- vin|vou- loir, _|_ _ _ _||pas- se hu-|mai- ne scien- *||ce.|
w: |||||||||
V:3
 c8 | d4 d4 | f6 f2 | e2 e2 d2 c2 | B2 c4 A2 | dcBA B4 | A4 c4 | c2 B2 A4- | A2 c2 B2 A2 | %9
w: Mort|m'a pri-|vé par|sa cru- el- *|* l'en- nuy-||e, d'ung|me- de- cin|_ cong- nois- sant|
w: Et|m'a re-|mis en|si grand fre- ne|si- * *||e, qu'en|peu de temps|_ iay bien chan-|
 c2 d2 e2 f2 | e2 d3 c B2- | BA A4 G2 | !fermata!A8 :: z4 A4 | B4 c4 | d2 d2 d2 d2 | c2 A2 B2 c2 | %17
w: ma na- tu- *|||re,|Riens|ne my|vault ma grand pro-|ge- ni- tu- *|
w: gé pas- tu- *|||re.|||||
 d4 c4 | e4 e2 d2 | c4 B2 B2 | c2 d3 c c2- | c2 B2 c2 G2 | c2 B2 A2 G2 | A2 B2 c4 | A4 B4 | %25
w: * re,|ver- tu me|cou- vre, ar-||* * mée de|pa- ti- en- *||* ce,|
w: ||||||||
 A2 c2 c4 | A3 B cd c2- | c2 B2 c2 e2 | e4 c4 | d4 z2 d2 | d2 d2 e2 f2 | g3 f e2 d2 | c2 A2 B4 | %33
w: di- vin vou-|loir, _ _ _ _|_ _ _ _||* pas-|se hu- mai- ne|sci- * * en-|* * ce,|
w: ||||||||
 A2 c2 c4 | A3 B cd c2- | c2 B2 c2 e2 | e4 c4 | d4 z2 d2 | d2 d2 e2 f2 | g3 f e2 d2 | c2 A2 B4 | %41
w: di- vin vou-||* * loir, di-|vin vou-|loir, pas-|se hu- mai- ne|scien- * * *||
w: ||||||||
 A8 :| %42
w: ce.|
w: |
V:4
 A,8 | D,4 G,4 | F,2 F,2 F,G,A,B, | C2 C,2 G,2 A,2 | E,2 A,3 G,F,E, | D,2 F,2 E,4 | A,,4 z2 A,2 | %7
w: Mort|m'a pri-|vé par sa _ _ _|_ cru- el- l'en-|nuy- * * * *||e, d'ung|
w: Et|m'a re-|mis en si _ _ _|_ grand fre- ne-|si- * * * *||e, qu'en|
 F,2 G,2 D,E,F,G, | A,2 A,2 G,2 F,2 |"^b" A,2 B,2 A,2 F,2 | G,3 F, D,2 E,2 | F,2 D,2 E,4 | %12
w: me- de- cin _ _ _|_ cong- nais- sant|ma na- tu- *|||
w: peu de temps _ _ _|_ iay bien chan-|gé pas- tu- *|||
 !fermata!A,,8 :: A,4 D,4 | G,4 F,4 | z2 D,2 D,E,F,G, | A,2 F,2 G,2 A,2 | B,4 A,4- | %18
w: re,|Riens ne|my vault|ma grand _ _ _|_ pro- ge- ni-|tu- re,|
w: re.||||||
 A,2 A,2 C2 G,2 | A,4 E,2 E,2 | A,2 G,2 F,3 E, | D,4 C,4 | z2 G,2 C2 B,2 | A,2 G,2 A,3 G, | %24
w: _ ver- tu me|cou- vre, ar-|mée de pa- ti-|en- ce,|ar- mée de|pa- ti- en- *|
w: ||||||
 F,4 E,4 | A,4 z2 A,2 | F,4 F,4 | G,4 z2 C2 | C4 A,4 | G,6 G,2 | G,3 F, E,2 D,2 | C,6 D,2 | %32
w: |ce, di-|vin vou-|loir, di-|vin vou-|loir, pas-|se hu- mai- ne|sci- *|
w: ||||||||
 E,2 F,2 E,4 | A,,4 z2 A,2 | F,4 F,4 | G,4 z2 C2 | C4 A,4 | G,6 G,2 | G,3 F, E,2 D,2 | C,6 D,2 | %40
w: en- * *|ce, di-|vin vou-|loir, di-|vin vou-|loir, pas-|se hu- mai- ne|scien- *|
w: ||||||||
 E,2 F,2 E,4 | A,,8 :| %42
w: |ce.|
w: ||

